X: 0
T: Delnabo
C: James Scott Skinner
M: C
L: 1/8
R: strathspey
K: Emin
B, | E2 G>E B>EG>E | {G}A2 =G>E (F>D D2) | {F}G2 B>(G d>)(GB>)(G ||1 A/)B/c B>A G>E (E :|2 A/)B/c B>^d e>E E ||
 f |(g/f/e) (B>^d) e>fg>e | d>f A>d F>A D>f | (g/f/e) (B>^d) e>fg>e | f<c' b>a g<e e>f | 
(g/f/e) (B>^d) e>f .g/.f/.e | d>(fA>)(d F>)(AD>)(F | (3G)FE (3AGF (3BAG (3cBA | B>e ^d>b g<e [Be] ||